app/images/nav_icons/cart.svg

<svg width="19" height="18" viewBox="0 0 19 18" fill="none" xmlns="http://www.w3.org/2000/svg">
<path fill-rule="evenodd" clip-rule="evenodd" d="M2.39519 15.1224C2.4761 15.1606 2.56137 15.1783 2.64537 15.1783C2.86852 15.1783 3.08206 15.0515 3.18231 14.8374C3.65668 13.821 4.53271 13.3285 5.86229 13.3276C5.86836 13.3256 5.87615 13.3256 5.88485 13.3276H16.2401C16.5084 13.3276 16.7436 13.1465 16.8129 12.888L18.936 4.93209C18.9832 4.75527 18.9455 4.56507 18.8328 4.41899C18.721 4.27289 18.5474 4.18694 18.3632 4.18694H4.31081H4.29308C2.7447 4.18694 1.40687 3.03657 1.17788 1.50512C1.12913 1.18061 0.819789 0.951178 0.504864 1.00641C0.18099 1.05413 -0.0422789 1.35512 0.00658914 1.67965C0.3214 3.78889 2.16174 5.37262 4.28965 5.37262H4.31414H17.592L15.7851 12.1438H6.36205L5.27075 6.56582C5.207 6.24586 4.89652 6.0318 4.57552 6.09783C4.25451 6.1609 4.04531 6.47268 4.10791 6.79328L5.16271 12.1844C3.73633 12.3615 2.68804 13.0955 2.10921 14.3351C1.97039 14.6315 2.09868 14.9838 2.39519 15.1224ZM13.9185 17.9778C13.3815 17.9778 12.8542 17.768 12.4568 17.3712C11.86 16.7761 11.6826 15.8907 12.0048 15.111C12.3258 14.3341 13.0769 13.8309 13.9185 13.8309C14.4641 13.791 14.9983 14.0488 15.3861 14.4342C15.7784 14.8266 15.9934 15.3456 15.9934 15.8996C15.9963 16.7392 15.4959 17.4931 14.7186 17.8167C14.4594 17.9252 14.1875 17.9765 13.9185 17.9778ZM5.52653 17.9778C4.98968 17.9778 4.46268 17.768 4.06499 17.3712C3.46818 16.7774 3.2908 15.8907 3.61239 15.111C3.93442 14.3341 4.68583 13.8309 5.52721 13.8309H5.53259C6.0834 13.8309 6.60215 14.0446 6.99365 14.4335C7.38596 14.8266 7.60203 15.3456 7.60203 15.8996C7.60397 16.7405 7.10296 17.4931 6.32544 17.8167C6.06656 17.9252 5.79511 17.9778 5.52653 17.9778ZM5.53259 15.0146H5.52858C5.16752 15.0146 4.84549 15.2303 4.70713 15.5636C4.5698 15.897 4.64544 16.2787 4.9011 16.5329C5.15688 16.7869 5.53762 16.862 5.86984 16.7244C6.20344 16.5849 6.41802 16.2614 6.41709 15.9006C6.41709 15.6636 6.32453 15.4411 6.15664 15.2721C5.99058 15.1074 5.76823 15.0146 5.53259 15.0146ZM13.9226 15.0146H13.9243C14.1567 15.0146 14.3842 15.109 14.549 15.2721C14.7168 15.4411 14.8094 15.6636 14.8094 15.9009C14.8104 16.2614 14.5954 16.5849 14.2627 16.7244C13.9311 16.862 13.5493 16.7882 13.2928 16.5329C13.0374 16.2787 12.9613 15.897 13.1 15.563C13.2379 15.2296 13.5917 15.0469 13.9226 15.0146Z" fill="#243F4D"/>
</svg>

<svg width="19" height="18" fill="none" xmlns="http://www.w3.org/2000/svg"><path fill-rule="evenodd" clip-rule="evenodd" d="M2.395 15.122a.593.593 0 00.787-.285c.475-1.016 1.35-1.509 2.68-1.51a.043.043 0 01.023 0H16.24a.594.594 0 00.573-.439l2.123-7.956a.591.591 0 00-.573-.745H4.293a3.165 3.165 0 01-3.115-2.682.591.591 0 10-1.171.175A4.354 4.354 0 004.29 5.373h13.302l-1.807 6.77H6.362L5.271 6.567a.592.592 0 10-1.163.227l1.055 5.391c-1.427.178-2.475.912-3.054 2.151a.592.592 0 00.286.787zm11.524 2.856c-.537 0-1.065-.21-1.462-.607a2.065 2.065 0 01-.452-2.26 2.065 2.065 0 011.913-1.28c.546-.04 1.08.218 1.468.603.392.393.607.912.607 1.466a2.064 2.064 0 01-1.274 1.917 2.08 2.08 0 01-.8.16zm-8.392 0c-.537 0-1.064-.21-1.462-.607a2.066 2.066 0 01-.453-2.26 2.068 2.068 0 011.915-1.28h.006c.55 0 1.07.214 1.46.603.393.393.609.912.609 1.466a2.066 2.066 0 01-1.277 1.917c-.258.108-.53.16-.798.16zm.006-2.963h-.004a.887.887 0 00-.628 1.518.89.89 0 10.632-1.518zm8.39 0h.001a.886.886 0 01.885.886.889.889 0 11-1.709-.338c.138-.333.492-.516.823-.548z" fill="#243F4D"/></svg>
